!!!OTL: Graserin und Reiter Es ging ein Knab spazieren,
!!!ARE: Europa, Osteuropa, UdSSR, Wolgakolonien
!!!YOR: 7, S. 154
!!    1923 gedruckt in Muenchen
!!!SCT: Q0149T
!!!YEM: Copyright 1995, estate of Helmut Schaffrath.
**kern
*ICvox
*Ivox
*M4/4
*k[f#c#]
*D:
{8d
8f#
=1
4a
4a
8g
8f#
4e
=2
4d
4b
4a}
{8a
8b
=3
4a
4a
8g
8f#
4e
=4
2d}
{2b
=5
4a
8dd
8ccn
4b}
{4b
=6
4a
4a
8g
8f#
4e
=7
2d
4r}
==
!!!AGN: Ballade, Verfuehrung, Verlassen des Elternhauses
!! Dritte Zeile refrainartige Silbenwiederholung. "Enjambement"
!!!ONB: ESAC (Essen Associative Code) Database: BALLADE
!!!AMT: simple quadruple
!!!AIN: vox
!!!EED: Helmut Schaffrath
!!!EEV: 1.0
*-
